X: 10193
M: C
L: 1/8
K: D
d2de dAFA | d2d>d d3e | fefg afed | e2e>e e3 :: g |\
fdde/f/ | geef/g/ | afed A3c/d/ | ecAc eaag | fedc d3 :|


